loleaflet/images/lc_styleapply3fstyle3astring3ddefault26familyname3astring3dcellstyles.svg

<svg viewBox="0 0 24 24" xmlns="http://www.w3.org/2000/svg"><path d="m10.599609 2.005859-7.4980465 19.988282h2.1445313c.2332413 0 .4314951-.06543.59375-.197266.1723957-.131832.2887638-.284635.3496093-.457031l1.5292969-4.339844h8.570312l1.53711 4.355469c.08113.182536.192011.333387.333984.455078.152114.121691.350368.183594.59375.183594h2.144531l-7.484374-19.988282zm1.400391 2.6171875c.09127.3752143.187654.7243184.289062 1.0488281.10141.3245097.203279.6081802.304688.8515625l2.990235 8.4765629h-7.1601569l2.9824219-8.4609379c.091268-.2433823.187654-.5270528.289062-.8515625.101411-.3245097.203279-.6790979.304688-1.0644531z" fill="#3a3a38"/></svg>

<?xml version="1.0" encoding="UTF-8" standalone="no"?>
<svg
   xmlns:dc="http://purl.org/dc/elements/1.1/"
   xmlns:cc="http://creativecommons.org/ns#"
   xmlns:rdf="http://www.w3.org/1999/02/22-rdf-syntax-ns#"
   xmlns:svg="http://www.w3.org/2000/svg"
   xmlns="http://www.w3.org/2000/svg"
   xmlns:sodipodi="http://sodipodi.sourceforge.net/DTD/sodipodi-0.dtd"
   xmlns:inkscape="http://www.inkscape.org/namespaces/inkscape"
   viewBox="0 0 24 24"
   version="1.1"
   id="svg6"
   sodipodi:docname="lc_styleapply3fstyle3astring3ddefault26familyname3astring3dcellstyles.svg"
   inkscape:version="0.92.5 (2060ec1f9f, 2020-04-08)">
  <metadata
     id="metadata12">
    <rdf:RDF>
      <cc:Work
         rdf:about="">
        <dc:format>image/svg+xml</dc:format>
        <dc:type
           rdf:resource="http://purl.org/dc/dcmitype/StillImage" />
        <dc:title></dc:title>
      </cc:Work>
    </rdf:RDF>
  </metadata>
  <defs
     id="defs10" />
  <sodipodi:namedview
     pagecolor="#ffffff"
     bordercolor="#666666"
     borderopacity="1"
     objecttolerance="10"
     gridtolerance="10"
     guidetolerance="10"
     inkscape:pageopacity="0"
     inkscape:pageshadow="2"
     inkscape:window-width="1366"
     inkscape:window-height="700"
     id="namedview8"
     showgrid="false"
     inkscape:zoom="9.8333333"
     inkscape:cx="-2.7966102"
     inkscape:cy="12"
     inkscape:window-x="0"
     inkscape:window-y="0"
     inkscape:window-maximized="1"
     inkscape:current-layer="svg6" />
  <path
     inkscape:connector-curvature="0"
     style="fill:#3a3a38"
     d="M 10.599609,2.005859 3.1015625,21.994141 h 2.1445313 c 0.2332413,0 0.4314951,-0.06543 0.59375,-0.197266 0.1723957,-0.131832 0.2887638,-0.284635 0.3496093,-0.457031 L 7.71875,17 h 8.570312 l 1.53711,4.355469 c 0.08113,0.182536 0.192011,0.333387 0.333984,0.455078 0.152114,0.121691 0.350368,0.183594 0.59375,0.183594 h 2.144531 L 13.414063,2.005859 Z M 12,4.6230465 c 0.09127,0.3752143 0.187654,0.7243184 0.289062,1.0488281 0.10141,0.3245097 0.203279,0.6081802 0.304688,0.8515625 L 15.583985,15 H 8.4238281 L 11.40625,6.5390621 C 11.497518,6.2956798 11.593904,6.0120093 11.695312,5.6874996 11.796723,5.3629899 11.898591,5.0084017 12,4.6230465 Z"
     id="path2" />
</svg>
